X:30
T:Silkesvalsen
R:vals
H:efter Lars Orre
H:egentligen Gm
A:\"Alvdalen, Dalarna
Z:id:hn-vals-30
M:3/4
K:Gm
G2 | G2 B2 d2 | g4 g2 | fg fe dc | B4 BA |
G^F GA Bc | df dB G2 | B2 AB/A/ G^F | G4 :|
|: d2 | d2 dB df | d2 BB B2 | A2 Ac ec | c2 AF AF |
G2 GA Bc | df dB G2 | B2 AB/A/ G^F | G4 :|
